docs/public/static/x/premium.svg

<svg width="33" height="18" viewBox="0 0 33 18" fill="none" xmlns="http://www.w3.org/2000/svg">
<g clip-path="url(#clip0)">
<path fill-rule="evenodd" clip-rule="evenodd" d="M20.9871 6.00002V9.99998L14.006 14V18L24.4776 12V4.00003L20.9871 6.00002Z" fill="#046ED8"/>
<path fill-rule="evenodd" clip-rule="evenodd" d="M7.0249 14L14.006 18V14L7.0249 10V14Z" fill="#007FFF"/>
<path fill-rule="evenodd" clip-rule="evenodd" d="M14.006 6L20.9871 9.99997L14.006 14L7.02493 9.99997L14.006 6Z" fill="#61B0FF"/>
<path fill-rule="evenodd" clip-rule="evenodd" d="M14.006 2.00002L20.9871 5.99998V9.99999L14.006 5.99998V2.00002Z" fill="#007FFF"/>
<path fill-rule="evenodd" clip-rule="evenodd" d="M14.006 2L20.9871 6.00001L24.4776 4.00003L17.4965 1.90735e-05L14.006 2Z" fill="#61B0FF"/>
<path fill-rule="evenodd" clip-rule="evenodd" d="M0 9.01478V13.0147L3.50952 15.0148V11.0148L0 9.01478Z" fill="#007FFF"/>
<path fill-rule="evenodd" clip-rule="evenodd" d="M14.038 5.0148V9.01477L3.50951 15.0148V11.0148L14.038 5.0148Z" fill="#046ED8"/>
<path fill-rule="evenodd" clip-rule="evenodd" d="M10.5285 3.01478L0 9.01478L3.50953 11.0148L14.0381 5.01481L10.5285 3.01478Z" fill="#61B0FF"/>
<path fill-rule="evenodd" clip-rule="evenodd" d="M29.7105 13.9925L33.22 12.0018V8.02033L29.7105 10.0111V13.9925Z" fill="#046ED8"/>
<path fill-rule="evenodd" clip-rule="evenodd" d="M26.201 8.02032L29.7105 10.011V13.9925L26.201 12.0018V8.02032Z" fill="#007FFF"/>
<path fill-rule="evenodd" clip-rule="evenodd" d="M29.7105 6.02956L33.22 8.02033L29.7105 10.011L26.201 8.02033L29.7105 6.02956Z" fill="#61B0FF"/>
</g>
<defs>
<clipPath id="clip0">
<rect width="33" height="18" fill="white"/>
</clipPath>
</defs>
</svg>

<svg width="33" height="18" fill="none" xmlns="http://www.w3.org/2000/svg"><g clip-path="url(#clip0)" fill-rule="evenodd" clip-rule="evenodd"><path d="M20.99 6v4L14 14v4l10.47-6V4l-3.5 2z" fill="#046ED8"/><path d="M7.02 14l6.99 4v-4l-6.99-4v4z" fill="#007FFF"/><path d="M14 6L21 10 14 14l-6.99-4 6.99-4z" fill="#61B0FF"/><path d="M14 2L21 6v4L14 6V2z" fill="#007FFF"/><path d="M14 2L21 6l3.49-2-6.98-4L14 2z" fill="#61B0FF"/><path d="M0 9.01v4l3.51 2v-4L0 9.01z" fill="#007FFF"/><path d="M14.04 5.01v4l-10.53 6v-4l10.53-6z" fill="#046ED8"/><path d="M10.53 3.01L0 9.01l3.51 2 10.53-6-3.51-2z" fill="#61B0FF"/><path d="M29.71 14l3.51-2V8.02l-3.5 2v3.97z" fill="#046ED8"/><path d="M26.2 8.02l3.51 2v3.97L26.21 12V8.02z" fill="#007FFF"/><path d="M29.71 6.03l3.51 1.99-3.5 2-3.52-2 3.51-1.99z" fill="#61B0FF"/></g><defs><clipPath id="clip0"><path fill="#fff" d="M0 0h33v18H0z"/></clipPath></defs></svg>
